X:1
T:Partition sans titre
C:Compositeur / Arrangeur
L:1/8
M:4/4
I:linebreak $
K:D
V:1 treble nm="Violon" snm="Vln."
V:1
 FA |"Bm" BAFA"D" D2 FA |"Bm" BA (3Bcd"A" e2 de |"D" fagf"A" egfe |"D" dfed"Bm" B2 dB | %5
"Bm" BAFA"D" D2 FA |"Bm" BA (3Bcd"Em" e2 de |"D" fagf"A" egfe |"D" d2 f2 d2 :: fg |"D" afdf a2 g2 | %11
"G" efga b2 ag |"D" fagf"A" egfe |"D" dfed"Bm" B2 dB |"Bm" BAFA"D" D2 FA |"Bm" BA (3Bcd"Em" e2 de | %16
"D" fagf"A" egfe |"D" d2 f2 d2 :| %18
